svgs/duotone/message-code.svg

<svg xmlns="http://www.w3.org/2000/svg" viewBox="0 0 512 512"><!--! Font Awesome Pro 6.3.0 by @fontawesome - https://fontawesome.com License - https://fontawesome.com/license (Commercial License) Copyright 2023 Fonticons, Inc. --><defs><style>.fa-secondary{opacity:.4}</style></defs><path class="fa-primary" d="M408.1 190.2l-80-72c-9.859-8.844-25.03-8.062-33.91 1.781c-8.859 9.875-8.062 25.03 1.781 33.91L356.1 208l-60.19 54.16c-9.844 8.875-10.64 24.03-1.781 33.91C298.9 301.3 305.4 304 312 304c5.734 0 11.47-2.031 16.06-6.156l80-72C413.1 221.3 416 214.8 416 208S413.1 194.7 408.1 190.2zM217.8 119.9C208.1 110.1 193.8 109.3 183.9 118.2l-80 72C98.89 194.7 96 201.2 96 208s2.891 13.28 7.938 17.84l80 72C188.5 301.1 194.3 304 200 304c6.562 0 13.09-2.688 17.84-7.938c8.859-9.875 8.062-25.03-1.781-33.91L155.9 208l60.19-54.16C225.9 144.1 226.7 129.8 217.8 119.9z"/><path class="fa-secondary" d="M448 0H64C28.75 0 0 28.75 0 63.1v287.1c0 35.25 28.75 63.1 64 63.1h96V499.1c0 9.748 11.25 15.45 19.12 9.699L304 415.1H448c35.25 0 64-28.75 64-63.1V63.1C512 28.75 483.3 0 448 0zM216.1 262.2c9.844 8.875 10.64 24.03 1.781 33.91C213.1 301.3 206.6 304 200 304c-5.734 0-11.47-2.031-16.06-6.156l-80-72C98.89 221.3 96 214.8 96 208s2.891-13.28 7.938-17.84l80-72c9.875-8.844 25.03-8.031 33.91 1.781c8.859 9.875 8.062 25.03-1.781 33.91L155.9 208L216.1 262.2zM408.1 225.8l-80 72C323.5 301.1 317.7 304 312 304c-6.562 0-13.09-2.688-17.84-7.938c-8.859-9.875-8.062-25.03 1.781-33.91L356.1 208l-60.19-54.16c-9.844-8.875-10.64-24.03-1.781-33.91c8.875-9.844 24.05-10.62 33.91-1.781l80 72C413.1 194.7 416 201.2 416 208S413.1 221.3 408.1 225.8z"/></svg>

<svg xmlns="http://www.w3.org/2000/svg" viewBox="0 0 512 512"><!-- Font Awesome Pro 6.0.0-alpha2 by @fontawesome - https://fontawesome.com License - https://fontawesome.com/license (Commercial License) --><defs><style>.fa-secondary{opacity:.4}</style></defs><path d="M448 0H64C28.75 0 0 28.748 0 63.994V352C0 387.248 28.75 415.994 64 415.994H160V499.961C160 509.709 171.25 515.459 179.125 509.709L304 415.994H448C483.25 415.994 512 387.248 512 352V63.994C512 28.748 483.25 0 448 0ZM216.062 262.156C225.906 271.031 226.703 286.188 217.844 296.062C213.094 301.312 206.562 304 200 304C194.266 304 188.531 301.969 183.938 297.844L103.938 225.844C98.891 221.281 96 214.812 96 208S98.891 194.719 103.938 190.156L183.938 118.156C193.813 109.312 208.969 110.125 217.844 119.938C226.703 129.813 225.906 144.969 216.062 153.844L155.875 208L216.062 262.156ZM408.062 225.844L328.062 297.844C323.469 301.969 317.734 304 312 304C305.438 304 298.906 301.312 294.156 296.062C285.297 286.187 286.094 271.031 295.938 262.156L356.125 208L295.937 153.844C286.094 144.969 285.297 129.812 294.156 119.938C303.031 110.094 318.203 109.313 328.062 118.156L408.062 190.156C413.109 194.719 416 201.188 416 208S413.109 221.281 408.062 225.844Z" class="fa-secondary"/><path d="M408.062 190.156L328.062 118.156C318.203 109.312 303.031 110.094 294.156 119.938C285.297 129.813 286.094 144.969 295.938 153.844L356.125 208L295.937 262.156C286.094 271.031 285.297 286.188 294.156 296.062C298.906 301.312 305.438 304 312 304C317.734 304 323.469 301.969 328.062 297.844L408.062 225.844C413.109 221.281 416 214.812 416 208S413.109 194.719 408.062 190.156ZM217.844 119.938C208.969 110.125 193.812 109.312 183.938 118.156L103.938 190.156C98.891 194.719 96 201.188 96 208S98.891 221.281 103.938 225.844L183.938 297.844C188.531 301.969 194.266 304 200 304C206.562 304 213.094 301.312 217.844 296.062C226.703 286.187 225.906 271.031 216.062 262.156L155.875 208L216.063 153.844C225.906 144.969 226.703 129.812 217.844 119.938Z" class="fa-primary"/></svg>
